polaris-icons/icons/newicons/ProductCostMajor.svg

<svg width="20" height="20" viewBox="0 0 20 20" fill="none" xmlns="http://www.w3.org/2000/svg">
<path d="M8.59099 4.09835C9.29425 3.39509 10.2481 3 11.2426 3H13.75C15.5449 3 17 4.45507 17 6.25V8.25C17 8.66421 16.6642 9 16.25 9C15.8358 9 15.5 8.66421 15.5 8.25V6.25C15.5 5.2835 14.7165 4.5 13.75 4.5H11.2426C10.6459 4.5 10.0736 4.73705 9.65165 5.15901L4.69455 10.1161C4.20639 10.6043 4.20639 11.3957 4.69455 11.8839L8.2929 15.4822C8.68342 15.8728 9.31659 15.8728 9.70711 15.4822L10.2822 14.9072C10.5751 14.6143 11.0499 14.6143 11.3428 14.9072C11.6357 15.2001 11.6357 15.6749 11.3428 15.9678L10.7678 16.5429C9.79146 17.5192 8.20855 17.5192 7.23224 16.5429L3.63389 12.9445C2.55994 11.8706 2.55994 10.1294 3.63389 9.05546L8.59099 4.09835Z" fill="black"/>
<path d="M14 7C14 7.55228 13.5523 8 13 8C12.4477 8 12 7.55228 12 7C12 6.44772 12.4477 6 13 6C13.5523 6 14 6.44772 14 7Z" fill="black"/>
<path d="M15 10.75C15 10.3358 15.3358 10 15.75 10C16.1642 10 16.5 10.3358 16.5 10.75V11H17.25C17.6642 11 18 11.3358 18 11.75C18 12.1642 17.6642 12.5 17.25 12.5H15C14.7239 12.5 14.5 12.7239 14.5 13C14.5 13.2761 14.7239 13.5 15 13.5H16C17.1046 13.5 18 14.3954 18 15.5C18 16.6046 17.1046 17.5 16 17.5V17.75C16 18.1642 15.6642 18.5 15.25 18.5C14.8358 18.5 14.5 18.1642 14.5 17.75V17.5H13.75C13.3358 17.5 13 17.1642 13 16.75C13 16.3358 13.3358 16 13.75 16H16C16.2761 16 16.5 15.7761 16.5 15.5C16.5 15.2239 16.2761 15 16 15H15C13.8954 15 13 14.1046 13 13C13 11.8954 13.8954 11 15 11V10.75Z" fill="black"/>
</svg>

<svg viewBox="0 0 20 20" fill="none" xmlns="http://www.w3.org/2000/svg"><path d="M8.591 4.098a3.75 3.75 0 0 1 2.652-1.098h2.507a3.25 3.25 0 0 1 3.25 3.25v2a.75.75 0 0 1-1.5 0v-2a1.75 1.75 0 0 0-1.75-1.75h-2.507a2.25 2.25 0 0 0-1.591.659l-4.957 4.957a1.25 1.25 0 0 0 0 1.768l3.598 3.598a1 1 0 0 0 1.414 0l.575-.575a.75.75 0 1 1 1.06 1.06l-.574.576a2.5 2.5 0 0 1-3.536 0l-3.598-3.598a2.75 2.75 0 0 1 0-3.89l4.957-4.957Z" fill="#5C5F62"/><path d="M14 7a1 1 0 1 1-2 0 1 1 0 0 1 2 0Z" fill="#5C5F62"/><path d="M15 10.75a.75.75 0 0 1 1.5 0v.25h.75a.75.75 0 0 1 0 1.5h-2.25a.5.5 0 0 0 0 1h1a2 2 0 1 1 0 4v.25a.75.75 0 0 1-1.5 0v-.25h-.75a.75.75 0 0 1 0-1.5h2.25a.5.5 0 0 0 0-1h-1a2 2 0 1 1 0-4v-.25Z" fill="#5C5F62"/></svg>
